icons/mail.svg

<svg width="24" height="24" viewBox="0 0 24 24" fill="none" xmlns="http://www.w3.org/2000/svg">
<path fill-rule="evenodd" clip-rule="evenodd" d="M2 4C2 3.44772 2.44772 3 3 3H21C21.5523 3 22 3.44772 22 4V20C22 20.5523 21.5523 21 21 21H3C2.44772 21 2 20.5523 2 20V4ZM4 7.22684V19H20V7.22684L12.6644 13.7474C12.2855 14.0842 11.7145 14.0842 11.3356 13.7474L4 7.22684ZM19.4948 5H4.5052L12 11.662L19.4948 5Z" fill="black"/>
</svg>

<svg
  width="24"
  height="24"
  viewBox="0 0 24 24"
  xmlns="http://www.w3.org/2000/svg"
>
  <path
    fill-rule="evenodd"
    clip-rule="evenodd"
    d="M2 4a1 1 0 0 1 1-1h18a1 1 0 0 1 1 1v16a1 1 0 0 1-1 1H3a1 1 0 0 1-1-1V4zm2 3.227V19h16V7.227l-7.336 6.52a1 1 0 0 1-1.328 0L4 7.227zM19.495 5H4.505L12 11.662 19.495 5z"
  />
</svg>
